src/assets/FacilitacionDelComercio.svg

<svg width="56" height="56" viewBox="0 0 56 56" fill="none" xmlns="http://www.w3.org/2000/svg">
<circle cx="28" cy="28" r="28" fill="#FF7A00"/>
<mask id="mask0_271_1097" style="mask-type:alpha" maskUnits="userSpaceOnUse" x="16" y="16" width="24" height="24">
<rect x="16" y="16" width="24" height="24" fill="#D9D9D9"/>
</mask>
<g mask="url(#mask0_271_1097)">
<path d="M23 36C22.1667 36 21.4583 35.7083 20.875 35.125C20.2917 34.5417 20 33.8333 20 33H17.5L17.95 31H20.775C21.0583 30.6833 21.3917 30.4375 21.775 30.2625C22.1583 30.0875 22.5667 30 23 30C23.4333 30 23.8417 30.0875 24.225 30.2625C24.6083 30.4375 24.9417 30.6833 25.225 31H29.4L31.5 22H20.55L20.65 21.575C20.75 21.1083 20.9792 20.7292 21.3375 20.4375C21.6958 20.1458 22.1167 20 22.6 20H34L33.075 24H36L39 28L38 33H36C36 33.8333 35.7083 34.5417 35.125 35.125C34.5417 35.7083 33.8333 36 33 36C32.1667 36 31.4583 35.7083 30.875 35.125C30.2917 34.5417 30 33.8333 30 33H26C26 33.8333 25.7083 34.5417 25.125 35.125C24.5417 35.7083 23.8333 36 23 36ZM31.925 29H36.75L36.85 28.475L35 26H32.625L31.925 29ZM31.45 22.175L31.5 22L29.4 31L29.45 30.825L30.3 27.175L31.45 22.175ZM16.5 29.325L17 27.325H22.5L22 29.325H16.5ZM18.5 25.675L19 23.675H25.5L25 25.675H18.5ZM23 34C23.2833 34 23.5208 33.9042 23.7125 33.7125C23.9042 33.5208 24 33.2833 24 33C24 32.7167 23.9042 32.4792 23.7125 32.2875C23.5208 32.0958 23.2833 32 23 32C22.7167 32 22.4792 32.0958 22.2875 32.2875C22.0958 32.4792 22 32.7167 22 33C22 33.2833 22.0958 33.5208 22.2875 33.7125C22.4792 33.9042 22.7167 34 23 34ZM33 34C33.2833 34 33.5208 33.9042 33.7125 33.7125C33.9042 33.5208 34 33.2833 34 33C34 32.7167 33.9042 32.4792 33.7125 32.2875C33.5208 32.0958 33.2833 32 33 32C32.7167 32 32.4792 32.0958 32.2875 32.2875C32.0958 32.4792 32 32.7167 32 33C32 33.2833 32.0958 33.5208 32.2875 33.7125C32.4792 33.9042 32.7167 34 33 34Z" fill="white"/>
</g>
</svg>

<svg width="56" height="56" fill="none" xmlns="http://www.w3.org/2000/svg"><circle cx="28" cy="28" r="28" fill="#FF7A00"/><mask id="a" style="mask-type:alpha" maskUnits="userSpaceOnUse" x="16" y="16" width="24" height="24"><path fill="#D9D9D9" d="M16 16h24v24H16z"/></mask><g mask="url(#a)"><path d="M23 36a2.893 2.893 0 0 1-2.125-.875A2.893 2.893 0 0 1 20 33h-2.5l.45-2h2.825a3 3 0 0 1 1-.738A2.915 2.915 0 0 1 23 30c.433 0 .842.087 1.225.262a3 3 0 0 1 1 .738H29.4l2.1-9H20.55l.1-.425c.1-.467.33-.846.688-1.137A1.936 1.936 0 0 1 22.6 20H34l-.925 4H36l3 4-1 5h-2c0 .833-.292 1.542-.875 2.125A2.893 2.893 0 0 1 33 36a2.893 2.893 0 0 1-2.125-.875A2.893 2.893 0 0 1 30 33h-4c0 .833-.292 1.542-.875 2.125A2.893 2.893 0 0 1 23 36Zm8.925-7h4.825l.1-.525L35 26h-2.375l-.7 3Zm-.475-6.825L31.5 22l-2.1 9 .05-.175.85-3.65 1.15-5Zm-14.95 7.15.5-2h5.5l-.5 2h-5.5Zm2-3.65.5-2h6.5l-.5 2h-6.5ZM23 34c.283 0 .52-.096.712-.288A.968.968 0 0 0 24 33a.968.968 0 0 0-.288-.712A.968.968 0 0 0 23 32a.968.968 0 0 0-.712.288A.968.968 0 0 0 22 33c0 .283.096.52.288.712A.965.965 0 0 0 23 34Zm10 0c.283 0 .52-.096.712-.288A.968.968 0 0 0 34 33a.968.968 0 0 0-.288-.712A.968.968 0 0 0 33 32a.968.968 0 0 0-.712.288A.968.968 0 0 0 32 33c0 .283.096.52.288.712A.965.965 0 0 0 33 34Z" fill="#fff"/></g></svg>
